icons/screen-full-16.svg

<svg xmlns="http://www.w3.org/2000/svg" width="16" height="16" viewBox="0 0 16 16">
  <defs/>
  <path d="M1.75,10 C2.164,10 2.5,10.336 2.5,10.75 L2.5,13.25 C2.5,13.388 2.612,13.5 2.75,13.5 L5.25,13.5 C5.664,13.5 6,13.836 6,14.25 C6,14.664 5.664,15 5.25,15 L2.75,15 C1.784,15 1,14.216 1,13.25 L1,10.75 C1,10.336 1.336,10 1.75,10 Z M14.25,10 C14.664,10 15,10.336 15,10.75 L15,13.25 C15,14.216 14.216,15 13.25,15 L10.75,15 C10.336,15 10,14.664 10,14.25 C10,13.836 10.336,13.5 10.75,13.5 L13.25,13.5 C13.388,13.5 13.5,13.388 13.5,13.25 L13.5,10.75 C13.5,10.336 13.836,10 14.25,10 Z M2.75,2.5 C2.612,2.5 2.5,2.612 2.5,2.75 L2.5,5.25 C2.5,5.664 2.164,6 1.75,6 C1.336,6 1,5.664 1,5.25 L1,2.75 C1,1.784 1.784,1 2.75,1 L5.25,1 C5.664,1 6,1.336 6,1.75 C6,2.164 5.664,2.5 5.25,2.5 Z M10,1.75 C10,1.336 10.336,1 10.75,1 L13.25,1 C14.216,1 15,1.784 15,2.75 L15,5.25 C15,5.664 14.664,6 14.25,6 C13.836,6 13.5,5.664 13.5,5.25 L13.5,2.75 C13.5,2.612 13.388,2.5 13.25,2.5 L10.75,2.5 C10.336,2.5 10,2.164 10,1.75 Z"/>
</svg>

<svg xmlns="http://www.w3.org/2000/svg" width="16" height="16" viewBox="0 0 16 16"><path d="M1.75 10a.75.75 0 01.75.75v2.5c0 .138.112.25.25.25h2.5a.75.75 0 010 1.5h-2.5A1.75 1.75 0 011 13.25v-2.5a.75.75 0 01.75-.75zm12.5 0a.75.75 0 01.75.75v2.5A1.75 1.75 0 0113.25 15h-2.5a.75.75 0 010-1.5h2.5a.25.25 0 00.25-.25v-2.5a.75.75 0 01.75-.75zM2.75 2.5a.25.25 0 00-.25.25v2.5a.75.75 0 01-1.5 0v-2.5C1 1.784 1.784 1 2.75 1h2.5a.75.75 0 010 1.5zM10 1.75a.75.75 0 01.75-.75h2.5c.966 0 1.75.784 1.75 1.75v2.5a.75.75 0 01-1.5 0v-2.5a.25.25 0 00-.25-.25h-2.5a.75.75 0 01-.75-.75z"/></svg>
